X:1
T:Balboa Park, 77.77 D
T:Balboa Park, 77.77 D
T:Asa Hull, 1899
T:Public Domain Courtesy of the Cyber Hymnal™
C:Asa Hull, 1899
Z:Public Domain
Z:Courtesy of the Cyber Hymnal™
%%score ( 1 2 ) ( 3 4 )
L:1/8
Q:1/4=145
M:6/4
K:G
V:1 treble 
V:2 treble 
V:3 bass 
V:4 bass 
V:1
 [DG]4 [B,D]2 [DB]4 [DG]2 | [Gd]4 [Gd]2 [GB]6 | [FA]4 [GB]2 [Ac]2 ([Bd]2 [ce]2) | %3
 [Bd]4 [GB]2 [Bd]6 | [DG]4 [B,D]2 [DB]4 [DG]2 | [Gd]4 [Gd]2 [GB]6 | (A2 B2) [Fc]2 [GB]4 [DA]2 | %7
 [DG]4 [CF]2 [B,G]6 | [CA]4 [CA]2 (F2 E2) [CD]2 | [DB]4 [DB]2 [DG]6 | [CA]4 [CA]2 (F2 E2) [CD]2 | %11
 [DB]4 [DB]2 [DG]6 | [DG]4 [B,D]2 [DB]4 [DG]2 | [Gd]4 [Gd]2 [GB]6 | (A2 B2) [Fc]2 [GB]4 [DA]2 | %15
 [DG]4 [CF]2 [B,G]6 |] %16
V:2
 x12 | x12 | x12 | x12 | x12 | x12 | E4 x8 | x12 | x6 C4 x2 | x12 | x6 C4 x2 | x12 | x12 | x12 | %14
 E4 x8 | x12 |] %16
V:3
 [G,B,]4 G,2 G,4 [G,B,]2 | [G,B,]4 [G,B,]2 [G,D]6 | [D,D]4 [D,D]2 [D,D]4 [D,D]2 | %3
 [G,D]4 [G,D]2 [G,D]6 | [G,B,]4 G,2 G,4 G,2 | [G,B,]4 [G,B,]2 [G,D]6 | %6
 ([C,A,]2 [B,,^G,]2) [A,,A,]2 [D,=G,]4 [D,C]2 | [D,B,]4 [D,A,]2 [G,,G,]6 | %8
 [D,F,]4 [D,F,]2 [D,A,]4 [D,A,]2 | G,4 G,2 [G,B,]6 | [D,F,]4 [D,F,]2 [D,A,]4 [D,A,]2 | %11
 G,4 G,2 [G,B,]6 | [G,B,]4 G,2 G,4 G,2 | [G,B,]4 [G,B,]2 [G,D]6 | %14
 ([C,A,]2 [B,,^G,]2) [A,,A,]2 [D,=G,]4 [D,C]2 | [D,B,]4 [D,A,]2 [G,,G,]6 |] %16
V:4
 x4 G,2 G,4 x2 | x12 | x12 | x12 | x4 G,2 G,4 G,2 | x12 | x12 | x12 | x12 | G,4 G,2 x6 | x12 | %11
 G,4 G,2 x6 | x4 G,2 G,4 G,2 | x12 | x12 | x12 |] %16

